X: 32
T: VALSE A RENE
M: 3/4
L: 1/8
Q:1/4=78
K:G 
|:GDG AB2|AGB ed2|deA Bce|dcB AB2:|!
|:G2d dB/2d/2B/2d/2|dB/2d/2B/2d/2 gfe|A2c cA/2c/2A/2c/2|cA/2c/2A/2c/2 ee
d|
B2d dB/2d/2B/2d/2|dB/2d/2B/2d/2 gfe|A2A Ace|1ded cBA:|2G2d G3|
